img/common/btn-arrow-pc.svg

<svg fill="none" height="21" viewBox="0 0 12 21" width="12" xmlns="http://www.w3.org/2000/svg"><path d="m1.48059.165039c-.17289 0-.34984.068355-.482527.201046-.265381.265381-.265381.699645 0 .965025l9.083237 9.08329-8.95055 8.9506c-.265379.2654-.265379.6996 0 .965.26538.2654.69964.2654.96503 0l9.43712-9.4331c.2654-.2654.2654-.6996 0-.96502l-9.56579-9.565795c-.13671-.136711-.30959-.201046-.48652-.201046z" fill="#fff"/></svg>

<svg width="12" height="21" viewBox="0 0 12 21" fill="none" xmlns="http://www.w3.org/2000/svg">
<path d="M1.48059 0.165039C1.3077 0.165039 1.13075 0.233394 0.998063 0.366085C0.732682 0.631466 0.732682 1.06573 0.998063 1.33111L10.0813 10.4144L1.13075 19.365C0.865371 19.6304 0.865371 20.0646 1.13075 20.33C1.39613 20.5954 1.83039 20.5954 2.09578 20.33L11.5329 10.8969C11.7983 10.6315 11.7983 10.1973 11.5329 9.93188L1.96711 0.366085C1.8304 0.229374 1.65752 0.165039 1.48059 0.165039Z" fill="white"/>
</svg>
